**harm	**harte	**silbe	**silbe	**rhyme	**timestamp	**phrase	**leadinstrument	**kern
*M4/4	*M4/4	*	*	*	*	*	*	*
*	*	*	*	*	*	*	*	*
*	*	*	*	*	*	*	*	*
*a:	*a:	*	*	*	*a:	*a:	*a:	*a:
*	*	*	*	*	*	*	*	*
*	*	*	*	*	*	*	*	*
1r;	N	.	.	.	0	.	r	1r;
1r;	N	.	.	.	1.695	.	r	1r;
1r;	N	.	.	.	3.389	.	r	1r;
1r;	N	.	.	.	5.084	.	r	1r;
1r;	N	.	.	.	6.779	.	r	1r;
1r;	N	.	.	.	8.474	.	r	1r;
1r;	N	.	.	.	10.168	.	r	1r;
1r;	N	.	.	.	11.863	.	r	1r;
1r;	N	.	.	.	13.558	.	r	1r;
1r;	N	.	.	.	15.252	.	r	1r;
1r;	N	.	.	.	16.947	.	r	1r;
1r;	N	.	.	.	18.642	.	r	1r;
1r;	N	.	.	.	20.337	.	r	1r;
1r;	N	.	.	.	22.031	.	r	1r;
1r;	N	.	.	.	23.726	.	r	1r;
=1	=1	=1	=1	=1	=1	=1	=1	=1
1-IIIc	C:maj/5	.	.	.	25.421	newline	acoustic guitar	1c- 1e- 1G-
=2	=2	=2	=2	=2	=2	=2	=2	=2
1vio7	F#:hdim7	.	.	.	27.117	.	acoustic guitar	1F 1a- 1cc- 1ee
=3	=3	=3	=3	=3	=3	=3	=3	=3
1V	E:maj	.	.	.	28.814	.	acoustic guitar	1E 1g# 1b
1r;	N	.	.	.	30.51	.	r	1r;
=4	=4	=4	=4	=4	=4	=4	=4	=4
1iv	D:min	.	.	.	32.207	.	r	1D 1f 1a
=5	=5	=5	=5	=5	=5	=5	=5	=5
1V	E:maj	.	.	.	33.904	.	r	1E 1g# 1b
=6	=6	=6	=6	=6	=6	=6	=6	=6
1r;	N	.	.	.	35.6	.	r	1r;
=6	=6	=6	=6	=6	=6	=6	=6	=6
*>Letter>B	*>Letter>B	*>Letter>B	*>Letter>B	*>Letter>B	*>Letter>B	*>Letter>B	*>Letter>B	*>Letter>B
*>Label>Intro	*>Label>Intro	*>Label>Intro	*>Label>Intro	*>Label>Intro	*>Label>Intro	*>Label>Intro	*>Label>Intro	*>Label>Intro
1i	A:min	.	.	.	37.297	newline	acoustic guitar	1A 1cc 1ee
=7	=7	=7	=7	=7	=7	=7	=7	=7
1-VI	F:maj	.	.	.	39.206	.	acoustic guitar	1F- 1a- 1cc-
=8	=8	=8	=8	=8	=8	=8	=8	=8
1i	A:min	.	.	.	41.114	.	acoustic guitar	1A 1cc 1ee
=9	=9	=9	=9	=9	=9	=9	=9	=9
2.-VI	F:maj	.	.	.	43.023	.	acoustic guitar	1F- 1a- 1cc-
4-VII	G:maj	.	.	.	44.455	.	acoustic guitar	4G 4b 4dd
=10	=10	=10	=10	=10	=10	=10	=10	=10
1i	A:min	.	.	.	44.932	newline	electric guitar	1A 1cc 1ee
=11	=11	=11	=11	=11	=11	=11	=11	=11
1-VI	F:maj	.	.	.	46.824	.	electric guitar	1F- 1a- 1cc-
=12	=12	=12	=12	=12	=12	=12	=12	=12
1i	A:min	.	.	.	48.717	.	electric guitar	1A 1cc 1ee
=13	=13	=13	=13	=13	=13	=13	=13	=13
2.-VI	F:maj	.	.	.	50.609	.	electric guitar	1F- 1a- 1cc-
4-VII	G:maj	.	.	.	52.028	.	electric guitar	4G 4b 4dd
=14	=14	=14	=14	=14	=14	=14	=14	=14
1i	A:min	.	.	.	52.501	newline	electric guitar	1A 1cc 1ee
=15	=15	=15	=15	=15	=15	=15	=15	=15
1-VII	G:maj	.	.	.	54.363	.	electric guitar	1G 1b 1dd
=16	=16	=16	=16	=16	=16	=16	=16	=16
*	*	*	*	*	*	*	*	*
1-VI	F:maj	.	.	.	56.224	.	electric guitar	1F- 1a- 1cc-
.	.	.	.	.	.	.	.	.
.	.	We	.	.	.	.	.	.
.	.	may	.	.	.	.	.	.
=17	=17	=17	=17	=17	=17	=17	=17	=17
*>Letter>C	*>Letter>C	*>Letter>C	*>Letter>C	*>Letter>C	*>Letter>C	*>Letter>C	*>Letter>C	*>Letter>C
*>Label>Verse	*>Label>Verse	*>Label>Verse	*>Label>Verse	*>Label>Verse	*>Label>Verse	*>Label>Verse	*>Label>Verse	*>Label>Verse
1i	A:min	still	.	.	58.086	newline	voice	1A 1cc 1ee
.	.	have	.	.	.	.	.	.
.	.	time,	.	A	.	.	.	.
.	.	_	.	.	.	.	.	.
.	.	we	.	.	.	.	.	.
.	.	might	.	.	.	.	.	.
=18	=18	=18	=18	=18	=18	=18	=18	=18
1-III	C:maj	_	.	.	59.975	.	voice	1C- 1e- 1g-
.	.	still	.	.	.	.	.	.
.	.	get	.	.	.	.	.	.
.	.	by	.	A	.	.	.	.
.	.	_	.	.	.	.	.	.
.	.	.	.	.	.	.	.	.
.	.	.	.	.	.	.	.	.
.	.	Ev-	.	.	.	.	.	.
.	.	-'ry	.	.	.	.	.	.
=19	=19	=19	=19	=19	=19	=19	=19	=19
.	.	_	.	.	.	.	.	.
1iv	D:min	time	.	.	61.864	.	voice	1D 1f 1a
.	.	I	.	.	.	.	.	.
.	.	think	.	.	.	.	.	.
.	.	a	.	.	.	.	.	.
.	.	_	.	.	.	.	.	.
.	.	bout	.	.	.	.	.	.
.	.	it	.	.	.	.	.	.
.	.	I	.	.	.	.	.	.
.	.	want	.	.	.	.	.	.
=20	=20	=20	=20	=20	=20	=20	=20	=20
1V	E:maj	_	.	.	63.752	.	voice	1E 1g# 1b
.	.	to	.	.	.	.	.	.
.	.	_	.	.	.	.	.	.
.	.	_	.	.	.	.	.	.
.	.	cry	.	A	.	.	.	.
.	.	_	.	.	.	.	.	.
.	.	.	.	.	.	.	.	.
.	.	With	.	.	.	.	.	.
=21	=21	=21	=21	=21	=21	=21	=21	=21
.	.	_	.	.	.	.	.	.
.	.	_	.	.	.	.	.	.
1i	A:min	bombs	.	.	65.641	.	voice	1A 1cc 1ee
.	.	and	.	.	.	.	.	.
.	.	the	.	.	.	.	.	.
.	.	de-	.	.	.	.	.	.
.	.	-vil	.	.	.	.	.	.
.	.	.	.	.	.	.	.	.
.	.	and	.	.	.	.	.	.
=22	=22	=22	=22	=22	=22	=22	=22	=22
1-III	C:maj	the	.	.	67.53	.	voice	1C- 1e- 1g-
.	.	kids	.	.	.	.	.	.
.	.	keep	.	.	.	.	.	.
.	.	co-	.	B	.	.	.	.
.	.	-ming	.	.	.	.	.	.
.	.	.	.	.	.	.	.	.
.	.	no	.	.	.	.	.	.
=23	=23	=23	=23	=23	=23	=23	=23	=23
.	.	_	.	.	.	.	.	.
1iv	D:min	where	.	.	69.419	.	voice	1D 1f 1a
.	.	to	.	.	.	.	.	.
.	.	breathe	.	.	.	.	.	.
.	.	_	.	.	.	.	.	.
.	.	ea	.	.	.	.	.	.
.	.	_	.	.	.	.	.	.
.	.	sy,	.	.	.	.	.	.
.	.	no	.	.	.	.	.	.
.	.	time	.	.	.	.	.	.
=24	=24	=24	=24	=24	=24	=24	=24	=24
1V	E:maj	_	.	.	71.308	.	voice	1E 1g# 1b
.	.	to	.	.	.	.	.	.
.	.	be	.	.	.	.	.	.
.	.	_	.	.	.	.	.	.
.	.	young	.	B	.	.	.	.
.	.	_	.	.	.	.	.	.
.	.	_	.	.	.	.	.	.
=25	=25	=25	=25	=25	=25	=25	=25	=25
*>Letter>E	*>Letter>E	*>Letter>E	*>Letter>E	*>Letter>E	*>Letter>E	*>Letter>E	*>Letter>E	*>Letter>E
*>Label>Transition	*>Label>Transition	*>Label>Transition	*>Label>Transition	*>Label>Transition	*>Label>Transition	*>Label>Transition	*>Label>Transition	*>Label>Transition
2.i	A:min	_	.	.	73.196	newline	electric guitar	1A 1cc 1ee
.	.	_	.	.	.	.	.	.
.	.	_	.	.	.	.	.	.
4IVc	D:maj/5	.	.	.	74.614	.	electric guitar	4d 4f# 4A
=26	=26	=26	=26	=26	=26	=26	=26	=26
1IVc	D:maj/5	_	.	.	75.086	.	electric guitar	1d 1f# 1A
.	.	.	.	.	.	.	.	.
.	.	.	.	.	.	.	.	.
=27	=27	=27	=27	=27	=27	=27	=27	=27
*	*	*	*	*	*	*	*	*
2.i	A:min	.	.	.	76.976	.	electric guitar	1A 1cc 1ee
4IVc	D:maj/5	.	.	.	78.394	.	electric guitar	4d 4f# 4A
=28	=28	=28	=28	=28	=28	=28	=28	=28
1IVc	D:maj/5	.	.	.	78.866	.	electric guitar	1d 1f# 1A
.	.	.	.	.	.	.	.	.
.	.	But	.	.	.	.	.	.
.	.	I	.	.	.	.	.	.
=29	=29	=29	=29	=29	=29	=29	=29	=29
*>Letter>D	*>Letter>D	*>Letter>D	*>Letter>D	*>Letter>D	*>Letter>D	*>Letter>D	*>Letter>D	*>Letter>D
*>Label>Prechorus	*>Label>Prechorus	*>Label>Prechorus	*>Label>Prechorus	*>Label>Prechorus	*>Label>Prechorus	*>Label>Prechorus	*>Label>Prechorus	*>Label>Prechorus
2iv	D:min	tell	.	.	80.756	newline	voice	2D 2f 2a
.	.	my	.	.	.	.	.	.
.	.	.	.	.	.	.	.	.
.	.	self	.	.	.	.	.	.
2v	E:min	.	.	.	81.683	.	voice	2E 2g 2b
.	.	that	.	.	.	.	.	.
.	.	I	.	.	.	.	.	.
.	.	was	.	.	.	.	.	.
=30	=30	=30	=30	=30	=30	=30	=30	=30
2-III	C:maj	do-	.	.	82.61	.	voice	2C- 2e- 2g-
.	.	-ing	.	.	.	.	.	.
.	.	al	.	.	.	.	.	.
.	.	_	.	.	.	.	.	.
.	.	right	.	A	.	.	.	.
2-VI	F:maj	_	.	.	83.536	.	voice	2F- 2a- 2cc-
.	.	.	.	.	.	.	.	.
.	.	there's	.	.	.	.	.	.
=31	=31	=31	=31	=31	=31	=31	=31	=31
1iv	D:min	no-	.	.	84.463	.	voice	1D 1f 1a
.	.	-thing	.	.	.	.	.	.
.	.	left	.	.	.	.	.	.
.	.	to	.	.	.	.	.	.
.	.	do	.	.	.	.	.	.
.	.	_	.	.	.	.	.	.
.	.	to	.	.	.	.	.	.
.	.	_	.	.	.	.	.	.
.	.	night	.	A	.	.	.	.
=32	=32	=32	=32	=32	=32	=32	=32	=32
1V	E:maj	_	.	.	86.316	.	voice	1E 1g# 1b
.	.	.	.	.	.	.	.	.
.	.	.	.	.	.	.	.	.
.	.	but	.	.	.	.	.	.
.	.	go	.	.	.	.	.	.
.	.	cra	.	.	.	.	.	.
.	.	_	.	.	.	.	.	.
=33	=33	=33	=33	=33	=33	=33	=33	=33
*>Letter>B	*>Letter>B	*>Letter>B	*>Letter>B	*>Letter>B	*>Letter>B	*>Letter>B	*>Letter>B	*>Letter>B
*>Label>Chorus	*>Label>Chorus	*>Label>Chorus	*>Label>Chorus	*>Label>Chorus	*>Label>Chorus	*>Label>Chorus	*>Label>Chorus	*>Label>Chorus
1i	A:min	_	.	.	88.169	newline	voice	1A 1cc 1ee
.	.	_	.	.	.	.	.	.
.	.	zy	.	.	.	.	.	.
.	.	on	.	.	.	.	.	.
.	.	_	.	.	.	.	.	.
.	.	you!	.	.	.	.	.	.
.	.	.	.	.	.	.	.	.
.	.	.	.	.	.	.	.	.
=34	=34	=34	=34	=34	=34	=34	=34	=34
2.-VI	F:maj	.	.	.	90.009	.	voice	1F- 1a- 1cc-
4-VII	G:maj	.	.	.	91.389	.	voice	4G 4b 4dd
=35	=35	=35	=35	=35	=35	=35	=35	=35
.	.	_	.	.	.	.	.	.
1i	A:min	Cra	.	.	91.849	.	voice	1A 1cc 1ee
.	.	_	.	.	.	.	.	.
.	.	_	.	.	.	.	.	.
.	.	zy	.	.	.	.	.	.
.	.	on	.	.	.	.	.	.
.	.	you	.	.	.	.	.	.
=36	=36	=36	=36	=36	=36	=36	=36	=36
2.-VI	F:maj	_	.	.	93.688	.	voice	2.F- 2.a- 2.cc-
.	.	.	.	.	.	.	.	.
.	.	.	.	.	.	.	.	.
.	.	Lem-	.	.	.	.	.	.
.	.	-me	.	.	.	.	.	.
4-VII	G:maj	go	.	.	95.068	.	voice	4G 4b 4dd
=37	=37	=37	=37	=37	=37	=37	=37	=37
1i	A:min	cra	.	.	95.528	newline	voice	1A 1cc 1ee
.	.	_	.	.	.	.	.	.
.	.	zy,	.	.	.	.	.	.
.	.	cra-	.	.	.	.	.	.
.	.	-zy	.	.	.	.	.	.
.	.	on	.	.	.	.	.	.
.	.	you	.	.	.	.	.	.
=38	=38	=38	=38	=38	=38	=38	=38	=38
1-VII	G:maj	_	.	.	97.364	.	voice	1G 1b 1dd
.	.	a-	.	.	.	.	.	.
.	.	-oh	.	.	.	.	.	.
=39	=39	=39	=39	=39	=39	=39	=39	=39
1-VI	F:maj	_	.	.	99.199	.	voice	1F- 1a- 1cc-
.	.	_	.	.	.	.	.	.
.	.	_	.	.	.	.	.	.
.	.	_	.	.	.	.	.	.
=40	=40	=40	=40	=40	=40	=40	=40	=40
*>Letter>C	*>Letter>C	*>Letter>C	*>Letter>C	*>Letter>C	*>Letter>C	*>Letter>C	*>Letter>C	*>Letter>C
*>Label>Verse	*>Label>Verse	*>Label>Verse	*>Label>Verse	*>Label>Verse	*>Label>Verse	*>Label>Verse	*>Label>Verse	*>Label>Verse
1i	A:min	_	love	.	101.035	newline	voice	1A 1cc 1ee
.	.	.	_	.	.	.	.	.
.	.	.	is	.	.	.	.	.
.	.	.	the	.	.	.	.	.
.	.	.	_	.	.	.	.	.
.	.	.	ev-	.	.	.	.	.
.	.	.	-'ning	.	.	.	.	.
.	.	.	breeze	.	.	.	.	.
=41	=41	=41	=41	=41	=41	=41	=41	=41
1-III	C:maj	.	tou-	.	102.886	.	voice	1C- 1e- 1g-
.	.	.	-ching	.	.	.	.	.
.	.	.	your	.	.	.	.	.
.	.	.	skin	C	.	.	.	.
.	.	.	_	.	.	.	.	.
.	.	.	.	.	.	.	.	.
.	.	.	the	.	.	.	.	.
=42	=42	=42	=42	=42	=42	=42	=42	=42
.	.	.	_	.	.	.	.	.
1iv	D:min	.	gen-	.	104.737	.	voice	1D 1f 1a
.	.	.	-tle	.	.	.	.	.
.	.	.	sweet	.	.	.	.	.
.	.	.	_	.	.	.	.	.
.	.	.	sing-	.	.	.	.	.
.	.	.	-ing	.	.	.	.	.
.	.	.	of	.	.	.	.	.
.	.	.	leaves	.	.	.	.	.
=43	=43	=43	=43	=43	=43	=43	=43	=43
1V	E:maj	.	_	.	106.588	.	voice	1E 1g# 1b
.	.	.	in	.	.	.	.	.
.	.	.	the	.	.	.	.	.
.	.	.	_	.	.	.	.	.
.	.	.	wind	C	.	.	.	.
.	.	.	_	.	.	.	.	.
.	.	.	.	.	.	.	.	.
.	.	.	The	.	.	.	.	.
=44	=44	=44	=44	=44	=44	=44	=44	=44
1i	A:min	.	whis-	.	108.44	.	voice	1A 1cc 1ee
.	.	.	-per	.	.	.	.	.
.	.	.	tha	.	.	.	.	.
.	.	.	calls	.	.	.	.	.
.	.	.	_	.	.	.	.	.
.	.	.	af-	.	.	.	.	.
.	.	.	-ter	.	.	.	.	.
=45	=45	=45	=45	=45	=45	=45	=45	=45
.	.	.	_	.	.	.	.	.
1-III	C:maj	.	you	.	110.291	.	voice	1C- 1e- 1g-
.	.	.	in	.	.	.	.	.
.	.	.	the	.	.	.	.	.
.	.	.	night	A	.	.	.	.
.	.	.	_	.	.	.	.	.
.	.	.	.	.	.	.	.	.
.	.	.	and	.	.	.	.	.
=46	=46	=46	=46	=46	=46	=46	=46	=46
1iv	D:min	.	kis-	.	112.142	.	voice	1D 1f 1a
.	.	.	-ses	.	.	.	.	.
.	.	.	your	.	.	.	.	.
.	.	.	_	.	.	.	.	.
.	.	.	ear	.	.	.	.	.
.	.	.	_	.	.	.	.	.
.	.	.	in	.	.	.	.	.
.	.	.	the	.	.	.	.	.
.	.	.	ear	.	.	.	.	.
=47	=47	=47	=47	=47	=47	=47	=47	=47
1V	E:maj	.	_	.	113.993	.	voice	1E 1g# 1b
.	.	.	ly	.	.	.	.	.
.	.	.	moon	.	.	.	.	.
.	.	.	_	.	.	.	.	.
.	.	.	light	A	.	.	.	.
.	.	.	_	.	.	.	.	.
.	.	.	_	.	.	.	.	.
=48	=48	=48	=48	=48	=48	=48	=48	=48
*>Letter>E	*>Letter>E	*>Letter>E	*>Letter>E	*>Letter>E	*>Letter>E	*>Letter>E	*>Letter>E	*>Letter>E
*>Label>Transition	*>Label>Transition	*>Label>Transition	*>Label>Transition	*>Label>Transition	*>Label>Transition	*>Label>Transition	*>Label>Transition	*>Label>Transition
2.i	A:min	.	_	.	115.844	newline	electric guitar	2.A 2.cc 2.ee
.	.	.	_	.	.	.	.	.
.	.	.	_	.	.	.	.	.
.	.	.	_	.	.	.	.	.
*	*	*	*	*	*	*	*	*
4IVc	D:maj/5	.	_	.	117.245	.	electric guitar	4d 4f# 4A
=49	=49	=49	=49	=49	=49	=49	=49	=49
1IVc	D:maj/5	.	_	.	117.712	.	electric guitar	1d 1f# 1A
=50	=50	=50	=50	=50	=50	=50	=50	=50
2.i	A:min	.	_	.	119.579	.	electric guitar	1A 1cc 1ee
.	.	.	.	.	.	.	.	.
4IVc	D:maj/5	.	.	.	120.98	.	electric guitar	4d 4f# 4A
=51	=51	=51	=51	=51	=51	=51	=51	=51
*	*	*	*	*	*	*	*	*
1IVc	D:maj/5	.	.	.	121.447	.	electric guitar	1d 1f# 1A
.	.	.	.	.	.	.	.	.
.	.	.	.	.	.	.	.	.
.	.	And	.	.	.	.	.	.
=52	=52	=52	=52	=52	=52	=52	=52	=52
*>Letter>D	*>Letter>D	*>Letter>D	*>Letter>D	*>Letter>D	*>Letter>D	*>Letter>D	*>Letter>D	*>Letter>D
*>Label>Prechorus	*>Label>Prechorus	*>Label>Prechorus	*>Label>Prechorus	*>Label>Prechorus	*>Label>Prechorus	*>Label>Prechorus	*>Label>Prechorus	*>Label>Prechorus
2iv	D:min	you	.	.	123.315	newline	voice	2D 2f 2a
.	.	don't	.	.	.	.	.	.
.	.	need	.	.	.	.	.	.
.	.	to	.	.	.	.	.	.
2v	E:min	won-	.	.	124.235	.	voice	2E 2g 2b
.	.	-der	.	.	.	.	.	.
.	.	.	.	.	.	.	.	.
.	.	you're	.	.	.	.	.	.
=53	=53	=53	=53	=53	=53	=53	=53	=53
2-III	C:maj	do-	.	.	125.156	.	voice	2C- 2e- 2g-
.	.	-ing	.	.	.	.	.	.
.	.	fine	.	A	.	.	.	.
2-VI	F:maj	_	.	.	126.076	.	voice	2F- 2a- 2cc-
.	.	.	.	.	.	.	.	.
.	.	and	.	.	.	.	.	.
=54	=54	=54	=54	=54	=54	=54	=54	=54
1iv	D:min	my	.	.	126.997	.	voice	1D 1f 1a
.	.	love,	.	.	.	.	.	.
.	.	the	.	.	.	.	.	.
.	.	plea-	.	.	.	.	.	.
.	.	-sure's	.	.	.	.	.	.
.	.	_	.	.	.	.	.	.
.	.	mine,	.	A	.	.	.	.
=55	=55	=55	=55	=55	=55	=55	=55	=55
1V	E:maj	_	.	.	128.838	.	voice	1E 1g# 1b
.	.	let	.	.	.	.	.	.
.	.	me	.	.	.	.	.	.
.	.	go	.	.	.	.	.	.
.	.	cra	.	.	.	.	.	.
.	.	_	.	.	.	.	.	.
=56	=56	=56	=56	=56	=56	=56	=56	=56
*>Letter>B	*>Letter>B	*>Letter>B	*>Letter>B	*>Letter>B	*>Letter>B	*>Letter>B	*>Letter>B	*>Letter>B
*>Label>Chorus	*>Label>Chorus	*>Label>Chorus	*>Label>Chorus	*>Label>Chorus	*>Label>Chorus	*>Label>Chorus	*>Label>Chorus	*>Label>Chorus
1i	A:min	_	.	.	130.679	newline	voice	1A 1cc 1ee
.	.	_	.	.	.	.	.	.
.	.	zy	.	.	.	.	.	.
.	.	on	.	.	.	.	.	.
.	.	_	.	.	.	.	.	.
.	.	you	.	.	.	.	.	.
.	.	.	.	.	.	.	.	.
=57	=57	=57	=57	=57	=57	=57	=57	=57
2.-VI	F:maj	.	.	.	132.495	.	voice	2q3.250000F- 2q3.250000a- 2q3.250000cc-
.	.	.	.	.	.	.	.	.
.	.	_	.	.	.	.	.	.
.	.	Cra	.	.	.	.	.	.
4-VII	G:maj	.	.	.	133.857	.	voice	8.G 8.b 8.dd
.	.	_	.	.	.	.	.	.
.	.	_	.	.	.	.	.	.
=58	=58	=58	=58	=58	=58	=58	=58	=58
1i	A:min	_	.	.	134.31	.	voice	1A 1cc 1ee
.	.	_	.	.	.	.	.	.
.	.	_	.	.	.	.	.	.
.	.	zy	.	.	.	.	.	.
.	.	on	.	.	.	.	.	.
.	.	_	.	.	.	.	.	.
.	.	you!	.	.	.	.	.	.
=59	=59	=59	=59	=59	=59	=59	=59	=59
2.-VI	F:maj	.	.	.	136.126	.	voice	2.F- 2.a- 2.cc-
.	.	.	.	.	.	.	.	.
.	.	Lem-	.	.	.	.	.	.
.	.	-me	.	.	.	.	.	.
4-VII	G:maj	go	.	.	137.488	.	voice	4G 4b 4dd
=60	=60	=60	=60	=60	=60	=60	=60	=60
1i	A:min	cra	.	.	137.942	newline	voice	1A 1cc 1ee
.	.	_	.	.	.	.	.	.
.	.	zy,	.	.	.	.	.	.
.	.	cra-	.	.	.	.	.	.
.	.	-zy	.	.	.	.	.	.
.	.	on	.	.	.	.	.	.
.	.	you,	.	.	.	.	.	.
=61	=61	=61	=61	=61	=61	=61	=61	=61
1-VII	G:maj	_	.	.	139.798	.	voice	1G 1b 1dd
.	.	a-	.	.	.	.	.	.
.	.	-oh	.	.	.	.	.	.
=62	=62	=62	=62	=62	=62	=62	=62	=62
1-VI	F:maj	_	.	.	141.654	.	voice	1F- 1a- 1cc-
.	.	_	.	.	.	.	.	.
.	.	_	.	.	.	.	.	.
.	.	_	.	.	.	.	.	.
=63	=63	=63	=63	=63	=63	=63	=63	=63
1i	A:min	_	.	.	143.51	.	voice	1A 1cc 1ee
.	.	.	.	.	.	.	.	.
=64	=64	=64	=64	=64	=64	=64	=64	=64
*>Letter>F	*>Letter>F	*>Letter>F	*>Letter>F	*>Letter>F	*>Letter>F	*>Letter>F	*>Letter>F	*>Letter>F
*>Label>Bridge	*>Label>Bridge	*>Label>Bridge	*>Label>Bridge	*>Label>Bridge	*>Label>Bridge	*>Label>Bridge	*>Label>Bridge	*>Label>Bridge
*A:	*A:	*	*	*	*A:	*A:	*A:	*A:
.	.	_	.	.	.	.	.	.
1vi7	F#:min7	Wild	.	.	145.366	newline	voice	1F# 1a 1cc# 1ee
.	.	man's	.	.	.	.	.	.
.	.	_	.	.	.	.	.	.
.	.	world	.	.	.	.	.	.
.	.	is	.	.	.	.	.	.
=65	=65	=65	=65	=65	=65	=65	=65	=65
1IV	D:maj	cry-	.	.	147.181	.	voice	1D 1f# 1a
.	.	-ing	.	.	.	.	.	.
.	.	in	.	.	.	.	.	.
.	.	pain	.	D	.	.	.	.
.	.	_	.	.	.	.	.	.
.	.	.	.	.	.	.	.	.
=66	=66	=66	=66	=66	=66	=66	=66	=66
*	*	*	*	*	*	*	*	*
1iii	C#:min	what	.	.	148.996	.	voice	1C# 1e 1g#
.	.	you	.	.	.	.	.	.
.	.	gon	.	.	.	.	.	.
.	.	_	.	.	.	.	.	.
.	.	na	.	.	.	.	.	.
.	.	do	.	.	.	.	.	.
.	.	_	.	.	.	.	.	.
.	.	when	.	.	.	.	.	.
.	.	ev-	.	.	.	.	.	.
.	.	-'ry-	.	.	.	.	.	.
=67	=67	=67	=67	=67	=67	=67	=67	=67
1IV	D:maj	-bo-	.	.	150.811	.	voice	1D 1f# 1a
.	.	-dy's	.	.	.	.	.	.
.	.	in-	.	.	.	.	.	.
.	.	-sane?	.	D	.	.	.	.
.	.	_	.	.	.	.	.	.
.	.	_	.	.	.	.	.	.
.	.	_	.	.	.	.	.	.
=68	=68	=68	=68	=68	=68	=68	=68	=68
1iii	C#:min	So	.	.	152.627	newline	voice	1C# 1e 1g#
.	.	a-	.	.	.	.	.	.
.	.	-fraid	.	D	.	.	.	.
.	.	_	.	.	.	.	.	.
.	.	of	.	.	.	.	.	.
.	.	one,	.	.	.	.	.	.
.	.	who's	.	.	.	.	.	.
.	.	so	.	.	.	.	.	.
.	.	a-	.	.	.	.	.	.
.	.	-fraid	.	D	.	.	.	.
=69	=69	=69	=69	=69	=69	=69	=69	=69
1IV	D:maj	_	.	.	154.459	.	voice	1D 1f# 1a
.	.	of	.	.	.	.	.	.
.	.	you	.	E	.	.	.	.
.	.	.	.	.	.	.	.	.
.	.	what	.	.	.	.	.	.
.	.	you	.	.	.	.	.	.
=70	=70	=70	=70	=70	=70	=70	=70	=70
1iii	C#:min	gon	.	.	156.292	.	voice	1C# 1e 1g#
.	.	_	.	.	.	.	.	.
.	.	na	.	.	.	.	.	.
.	.	do	.	E	.	.	.	.
.	.	_	.	.	.	.	.	.
.	.	_	.	.	.	.	.	.
=71	=71	=71	=71	=71	=71	=71	=71	=71
1ii7c	B:min7/5	_	.	.	158.125	.	voice	1b 1dd 1F# 1aa
=72	=72	=72	=72	=72	=72	=72	=72	=72
1ii7	B:min7	_	.	.	159.958	newline	voice	1B 1dd 1ff# 1aa
.	.	_	.	.	.	.	.	.
=73	=73	=73	=73	=73	=73	=73	=73	=73
1I	A:maj	_	.	.	161.813	.	voice	1A 1cc# 1ee
=74	=74	=74	=74	=74	=74	=74	=74	=74
1I	A:maj	_	.	.	163.669	.	voice	1A 1cc# 1ee
.	.	.	.	.	.	.	.	.
=75	=75	=75	=75	=75	=75	=75	=75	=75
1V	E:maj	.	Ah	.	165.524	newline	voice	1E 1g# 1b
=76	=76	=76	=76	=76	=76	=76	=76	=76
1V	E:maj	.	_	.	167.363	.	voice	1E 1g# 1b
.	.	.	_	.	.	.	.	.
=77	=77	=77	=77	=77	=77	=77	=77	=77
1V	E:maj	.	_	.	169.202	.	voice	1E 1g# 1b
.	.	.	.	.	.	.	.	.
.	.	_	.	.	.	.	.	.
.	.	Ooh	.	.	.	.	.	.
=78	=78	=78	=78	=78	=78	=78	=78	=78
1V7	E:7	_	_	.	171.041	.	voice	1E 1g# 1b 1dd
.	.	_	.	.	.	.	.	.
.	.	cra-	.	.	.	.	.	.
=79	=79	=79	=79	=79	=79	=79	=79	=79
*>Letter>B	*>Letter>B	*>Letter>B	*>Letter>B	*>Letter>B	*>Letter>B	*>Letter>B	*>Letter>B	*>Letter>B
*>Label>Chorus	*>Label>Chorus	*>Label>Chorus	*>Label>Chorus	*>Label>Chorus	*>Label>Chorus	*>Label>Chorus	*>Label>Chorus	*>Label>Chorus
*a:	*a:	*	*	*	*a:	*a:	*a:	*a:
1i	A:min	_	.	.	172.88	newline	voice	1A 1cc 1ee
.	.	_	.	.	.	.	.	.
.	.	_	.	.	.	.	.	.
.	.	_	.	.	.	.	.	.
.	.	-zy	.	.	.	.	.	.
.	.	on	.	.	.	.	.	.
.	.	you	.	.	.	.	.	.
=80	=80	=80	=80	=80	=80	=80	=80	=80
2.-VI	F:maj	.	.	.	174.699	.	voice	2q3.250000F- 2q3.250000a- 2q3.250000cc-
.	.	.	.	.	.	.	.	.
.	.	_	.	.	.	.	.	.
.	.	cra	.	.	.	.	.	.
4-VII	G:maj	.	.	.	176.064	.	voice	8.G 8.b 8.dd
.	.	_	.	.	.	.	.	.
.	.	_	.	.	.	.	.	.
=81	=81	=81	=81	=81	=81	=81	=81	=81
1i	A:min	_	.	.	176.519	.	voice	1A 1cc 1ee
.	.	_	.	.	.	.	.	.
.	.	_	.	.	.	.	.	.
.	.	zy	.	.	.	.	.	.
.	.	on	.	.	.	.	.	.
.	.	_	.	.	.	.	.	.
.	.	you!	.	.	.	.	.	.
=82	=82	=82	=82	=82	=82	=82	=82	=82
2.-VI	F:maj	.	.	.	178.338	.	voice	2.F- 2.a- 2.cc-
.	.	.	.	.	.	.	.	.
.	.	Lem-	.	.	.	.	.	.
.	.	-me	.	.	.	.	.	.
4-VII	G:maj	go	.	.	179.703	.	voice	4G 4b 4dd
=83	=83	=83	=83	=83	=83	=83	=83	=83
1i	A:min	cra	.	.	180.158	newline	voice	1A 1cc 1ee
.	.	_	.	.	.	.	.	.
.	.	zy,	.	.	.	.	.	.
.	.	cra-	.	.	.	.	.	.
.	.	-zy	.	.	.	.	.	.
.	.	on	.	.	.	.	.	.
.	.	you,	.	.	.	.	.	.
=84	=84	=84	=84	=84	=84	=84	=84	=84
1-VII	G:maj	_	.	.	181.952	.	voice	1G 1b 1dd
.	.	a-	.	.	.	.	.	.
.	.	-oh	.	.	.	.	.	.
=85	=85	=85	=85	=85	=85	=85	=85	=85
1-VI	F:maj	_	.	.	183.746	.	voice	1F- 1a- 1cc-
.	.	_	.	.	.	.	.	.
.	.	_	.	.	.	.	.	.
.	.	_	.	.	.	.	.	.
.	.	.	.	.	.	.	.	.
.	.	.	I	.	.	.	.	.
.	.	.	_	.	.	.	.	.
=86	=86	=86	=86	=86	=86	=86	=86	=86
*>Letter>C	*>Letter>C	*>Letter>C	*>Letter>C	*>Letter>C	*>Letter>C	*>Letter>C	*>Letter>C	*>Letter>C
*>Label>Verse	*>Label>Verse	*>Label>Verse	*>Label>Verse	*>Label>Verse	*>Label>Verse	*>Label>Verse	*>Label>Verse	*>Label>Verse
1i	A:min	_	_	.	185.541	newline	.	1A 1cc 1ee
.	.	.	was	.	.	.	.	.
.	.	.	a	.	.	.	.	.
.	.	.	wil-	.	.	.	.	.
.	.	.	-low	.	.	.	.	.
.	.	.	last	.	.	.	.	.
.	.	.	_	.	.	.	.	.
.	.	.	night	.	.	.	.	.
=87	=87	=87	=87	=87	=87	=87	=87	=87
1-III	C:maj	.	_	.	187.379	.	.	1C- 1e- 1g-
.	.	.	in	.	.	.	.	.
.	.	.	a	.	.	.	.	.
.	.	.	_	.	.	.	.	.
.	.	.	_	.	.	.	.	.
.	.	.	dream	F	.	.	.	.
.	.	.	_	.	.	.	.	.
.	.	.	.	.	.	.	.	.
.	.	.	I	.	.	.	.	.
=88	=88	=88	=88	=88	=88	=88	=88	=88
.	.	.	_	.	.	.	.	.
1iv	D:min	.	bent	.	189.217	.	.	1D 1f 1a
.	.	.	down	.	.	.	.	.
.	.	.	_	.	.	.	.	.
.	.	.	o	.	.	.	.	.
.	.	.	_	.	.	.	.	.
.	.	.	ver	.	.	.	.	.
.	.	.	a	.	.	.	.	.
.	.	.	_	.	.	.	.	.
.	.	.	clear	.	.	.	.	.
=89	=89	=89	=89	=89	=89	=89	=89	=89
1V	E:maj	.	_	.	191.056	.	.	1E 1g# 1b
.	.	.	run-	.	.	.	.	.
.	.	.	-ning	.	.	.	.	.
.	.	.	_	.	.	.	.	.
.	.	.	stream	F	.	.	.	.
.	.	.	_	.	.	.	.	.
.	.	.	.	.	.	.	.	.
=90	=90	=90	=90	=90	=90	=90	=90	=90
1i	A:min	.	I	.	192.894	.	.	1A 1cc 1ee
.	.	.	sang	.	.	.	.	.
.	.	.	a	.	.	.	.	.
.	.	.	song	.	.	.	.	.
.	.	.	_	.	.	.	.	.
.	.	.	that	.	.	.	.	.
.	.	.	I	.	.	.	.	.
.	.	.	_	.	.	.	.	.
.	.	.	_	.	.	.	.	.
.	.	.	heard	.	.	.	.	.
=91	=91	=91	=91	=91	=91	=91	=91	=91
1-III	C:maj	.	_	.	194.733	.	.	1C- 1e- 1g-
.	.	.	up	.	.	.	.	.
.	.	.	a-	.	.	.	.	.
.	.	.	-bove	G	.	.	.	.
.	.	.	_	.	.	.	.	.
.	.	.	.	.	.	.	.	.
.	.	.	And	.	.	.	.	.
=92	=92	=92	=92	=92	=92	=92	=92	=92
1iv	D:min	.	you	.	196.571	.	.	1D 1f 1a
*	*	*	*	*	*	*	*	*
.	.	.	.	.	.	.	.	.
.	.	.	kept	.	.	.	.	.
.	.	.	me	.	.	.	.	.
.	.	.	a-	.	.	.	.	.
.	.	.	-live	.	.	.	.	.
.	.	.	_	.	.	.	.	.
.	.	.	with	.	.	.	.	.
.	.	.	your	.	.	.	.	.
=93	=93	=93	=93	=93	=93	=93	=93	=93
1V	E:maj	.	.	.	198.409	.	.	1E 1g# 1b
.	.	.	sweet	.	.	.	.	.
.	.	.	.	.	.	.	.	.
.	.	.	flo-	.	.	.	.	.
.	.	.	-wing	.	.	.	.	.
.	.	.	_	.	.	.	.	.
.	.	.	love	G	.	.	.	.
=94	=94	=94	=94	=94	=94	=94	=94	=94
*>Letter>B	*>Letter>B	*>Letter>B	*>Letter>B	*>Letter>B	*>Letter>B	*>Letter>B	*>Letter>B	*>Letter>B
*>Label>Chorus	*>Label>Chorus	*>Label>Chorus	*>Label>Chorus	*>Label>Chorus	*>Label>Chorus	*>Label>Chorus	*>Label>Chorus	*>Label>Chorus
1i	A:min	Cra-	Cra	.	200.248	newline	.	1A 1cc 1ee
.	.	.	_	.	.	.	.	.
.	.	.	zy!	.	.	.	.	.
=95	=95	=95	=95	=95	=95	=95	=95	=95
2.-VI	F:maj	-!	.	.	202.075	.	.	2.F- 2.a- 2.cc-
.	.	.	.	.	.	.	.	.
.	.	.	.	.	.	.	.	.
.	.	Yeah!	.	.	.	.	.	.
4-VII	G:maj	_	.	.	203.446	.	.	4G 4b 4dd
=96	=96	=96	=96	=96	=96	=96	=96	=96
1i	A:min	Cra	.	.	203.902	.	.	1A 1cc 1ee
.	.	_	.	.	.	.	.	.
.	.	_	.	.	.	.	.	.
.	.	_	.	.	.	.	.	.
.	.	_	.	.	.	.	.	.
.	.	zy	.	.	.	.	.	.
.	.	on	.	.	.	.	.	.
.	.	you	.	.	.	.	.	.
=97	=97	=97	=97	=97	=97	=97	=97	=97
2.-VI	F:maj	.	.	.	205.73	.	.	2.F- 2.a- 2.cc-
.	.	.	.	.	.	.	.	.
.	.	Lem-	.	.	.	.	.	.
.	.	-me	.	.	.	.	.	.
4-VII	G:maj	go	.	.	207.1	.	.	4G 4b 4dd
=98	=98	=98	=98	=98	=98	=98	=98	=98
1i	A:min	cra	.	.	207.557	newline	.	1A 1cc 1ee
.	.	_	.	.	.	.	.	.
.	.	zy,	.	.	.	.	.	.
.	.	cra-	.	.	.	.	.	.
.	.	-zy	.	.	.	.	.	.
.	.	on	.	.	.	.	.	.
.	.	you	.	.	.	.	.	.
=99	=99	=99	=99	=99	=99	=99	=99	=99
1-VII	G:maj	_	.	.	209.394	.	.	1G 1b 1dd
.	.	a-	.	.	.	.	.	.
.	.	-oh	.	.	.	.	.	.
=100	=100	=100	=100	=100	=100	=100	=100	=100
1-VI	F:maj	_	.	.	211.232	.	.	1F- 1a- 1cc-
.	.	_	.	.	.	.	.	.
.	.	_	.	.	.	.	.	.
.	.	.	.	.	.	.	.	.
.	.	_	.	.	.	.	.	.
.	.	cra	.	.	.	.	.	.
=101	=101	=101	=101	=101	=101	=101	=101	=101
*>Letter>B	*>Letter>B	*>Letter>B	*>Letter>B	*>Letter>B	*>Letter>B	*>Letter>B	*>Letter>B	*>Letter>B
*>Label>Chorus	*>Label>Chorus	*>Label>Chorus	*>Label>Chorus	*>Label>Chorus	*>Label>Chorus	*>Label>Chorus	*>Label>Chorus	*>Label>Chorus
.	.	_	.	.	.	.	.	.
1i	A:min	_	.	.	213.069	newline	.	1A 1cc 1ee
.	.	_	.	.	.	.	.	.
.	.	_	.	.	.	.	.	.
.	.	_	.	.	.	.	.	.
.	.	_	.	.	.	.	.	.
.	.	zy	.	.	.	.	.	.
.	.	_	.	.	.	.	.	.
.	.	on	.	.	.	.	.	.
=102	=102	=102	=102	=102	=102	=102	=102	=102
2.-VI	F:maj	_	.	.	214.868	.	.	2q3.250000F- 2q3.250000a- 2q3.250000cc-
.	.	you!	.	.	.	.	.	.
.	.	.	.	.	.	.	.	.
.	.	.	.	.	.	.	.	.
.	.	_	.	.	.	.	.	.
.	.	Cra	.	.	.	.	.	.
4-VII	G:maj	.	.	.	216.218	.	.	8.G 8.b 8.dd
.	.	_	.	.	.	.	.	.
.	.	_	.	.	.	.	.	.
=103	=103	=103	=103	=103	=103	=103	=103	=103
1i	A:min	_	.	.	216.668	.	.	1A 1cc 1ee
.	.	_	.	.	.	.	.	.
.	.	_	.	.	.	.	.	.
.	.	zy	.	.	.	.	.	.
.	.	on	.	.	.	.	.	.
.	.	_	.	.	.	.	.	.
.	.	you	.	.	.	.	.	.
=104	=104	=104	=104	=104	=104	=104	=104	=104
2.-VI	F:maj	.	.	.	218.467	.	.	2.F- 2.a- 2.cc-
.	.	.	.	.	.	.	.	.
.	.	Lem-	.	.	.	.	.	.
.	.	-me	.	.	.	.	.	.
4-VII	G:maj	go	.	.	219.817	.	.	4G 4b 4dd
=105	=105	=105	=105	=105	=105	=105	=105	=105
1i	A:min	cra	.	.	220.267	newline	voice	1A 1cc 1ee
.	.	_	.	.	.	.	.	.
.	.	zy,	.	.	.	.	.	.
.	.	cra-	.	.	.	.	.	.
.	.	-zy	.	.	.	.	.	.
.	.	on	.	.	.	.	.	.
.	.	you	.	.	.	.	.	.
=106	=106	=106	=106	=106	=106	=106	=106	=106
1-VII	G:maj	_	.	.	222.082	.	voice	1G 1b 1dd
=107	=107	=107	=107	=107	=107	=107	=107	=107
1-VI	F:maj	oh	.	.	223.898	.	voice	1F- 1a- 1cc-
.	.	yeah	.	.	.	.	.	.
=108	=108	=108	=108	=108	=108	=108	=108	=108
*>Letter>B	*>Letter>B	*>Letter>B	*>Letter>B	*>Letter>B	*>Letter>B	*>Letter>B	*>Letter>B	*>Letter>B
*>Label>Solo	*>Label>Solo	*>Label>Solo	*>Label>Solo	*>Label>Solo	*>Label>Solo	*>Label>Solo	*>Label>Solo	*>Label>Solo
1i	A:min	_	.	.	225.713	newline	electric guitar	1A 1cc 1ee
.	.	.	.	.	.	.	.	.
=109	=109	=109	=109	=109	=109	=109	=109	=109
2.-VI	F:maj	.	.	.	227.523	.	electric guitar	1F- 1a- 1cc-
4-VII	G:maj	.	.	.	228.881	.	electric guitar	4G 4b 4dd
=110	=110	=110	=110	=110	=110	=110	=110	=110
1i	A:min	.	.	.	229.333	.	electric guitar	1A 1cc 1ee
=111	=111	=111	=111	=111	=111	=111	=111	=111
2.-VI	F:maj	.	.	.	231.143	.	electric guitar	1F- 1a- 1cc-
4-VII	G:maj	.	.	.	232.5	.	electric guitar	4G 4b 4dd
=112	=112	=112	=112	=112	=112	=112	=112	=112
1i	A:min	.	.	.	232.953	newline	electric guitar	1A 1cc 1ee
=113	=113	=113	=113	=113	=113	=113	=113	=113
1-VII	G:maj	.	.	.	234.75	.	electric guitar	1G 1b 1dd
=114	=114	=114	=114	=114	=114	=114	=114	=114
1-VI	F:maj	.	.	.	236.547	.	electric guitar	1F- 1a- 1cc-
=115	=115	=115	=115	=115	=115	=115	=115	=115
1i	A:min	.	.	.	238.344	.	electric guitar	1A 1cc 1ee
=116	=116	=116	=116	=116	=116	=116	=116	=116
*>Letter>F	*>Letter>F	*>Letter>F	*>Letter>F	*>Letter>F	*>Letter>F	*>Letter>F	*>Letter>F	*>Letter>F
*>Label>Solo	*>Label>Solo	*>Label>Solo	*>Label>Solo	*>Label>Solo	*>Label>Solo	*>Label>Solo	*>Label>Solo	*>Label>Solo
*A:	*A:	*	*	*	*A:	*A:	*A:	*A:
1vi7	F#:min7	.	.	.	240.141	newline	electric guitar	1F# 1a 1cc# 1ee
=117	=117	=117	=117	=117	=117	=117	=117	=117
1IV	D:maj	.	.	.	241.982	.	electric guitar	1D 1f# 1a
=118	=118	=118	=118	=118	=118	=118	=118	=118
1iii	C#:min	.	.	.	243.823	.	electric guitar	1C# 1e 1g#
=119	=119	=119	=119	=119	=119	=119	=119	=119
1IV	D:maj	.	.	.	245.664	.	electric guitar	1D 1f# 1a
=120	=120	=120	=120	=120	=120	=120	=120	=120
1iii	C#:min	.	.	.	247.505	newline	electric guitar	1C# 1e 1g#
=121	=121	=121	=121	=121	=121	=121	=121	=121
1IV	D:maj	.	.	.	249.325	.	electric guitar	1D 1f# 1a
=122	=122	=122	=122	=122	=122	=122	=122	=122
1iii	C#:min	.	.	.	251.145	.	electric guitar	1C# 1e 1g#
=123	=123	=123	=123	=123	=123	=123	=123	=123
1ii7c	B:min7/5	.	.	.	252.966	.	electric guitar	1b 1dd 1F# 1aa
=124	=124	=124	=124	=124	=124	=124	=124	=124
1ii7	B:min7	.	.	.	254.786	newline	electric guitar	1B 1dd 1ff# 1aa
=125	=125	=125	=125	=125	=125	=125	=125	=125
1I	A:maj	.	.	.	256.643	.	electric guitar	1A 1cc# 1ee
=126	=126	=126	=126	=126	=126	=126	=126	=126
1I	A:maj	.	.	.	258.499	.	electric guitar	1A 1cc# 1ee
=127	=127	=127	=127	=127	=127	=127	=127	=127
1V	E:maj	.	Ah!	.	260.356	newline	electric guitar	1E 1g# 1b
=128	=128	=128	=128	=128	=128	=128	=128	=128
1V	E:maj	.	_	.	262.163	.	electric guitar	1E 1g# 1b
.	.	.	_	.	.	.	.	.
=129	=129	=129	=129	=129	=129	=129	=129	=129
1V	E:maj	.	_	.	263.97	.	electric guitar	1E 1g# 1b
=130	=130	=130	=130	=130	=130	=130	=130	=130
1V7	E:7	.	_	.	265.777	.	electric guitar	1E 1g# 1b 1dd
=131	=131	=131	=131	=131	=131	=131	=131	=131
*>Letter>B	*>Letter>B	*>Letter>B	*>Letter>B	*>Letter>B	*>Letter>B	*>Letter>B	*>Letter>B	*>Letter>B
*>Label>Chorus	*>Label>Chorus	*>Label>Chorus	*>Label>Chorus	*>Label>Chorus	*>Label>Chorus	*>Label>Chorus	*>Label>Chorus	*>Label>Chorus
*a:	*a:	*	*	*	*a:	*a:	*a:	*a:
.	.	_	.	.	.	.	.	.
1i	A:min	Cra	.	.	267.584	newline	voice	1A 1cc 1ee
.	.	_	.	.	.	.	.	.
.	.	_	.	.	.	.	.	.
.	.	zy	.	.	.	.	.	.
.	.	on	.	.	.	.	.	.
.	.	_	.	.	.	.	.	.
.	.	you	.	.	.	.	.	.
=132	=132	=132	=132	=132	=132	=132	=132	=132
2.-VI	F:maj	.	.	.	269.401	.	voice	2.F- 2.a- 2.cc-
.	.	.	.	.	.	.	.	.
.	.	_	.	.	.	.	.	.
4-VII	G:maj	Cra	.	.	270.764	.	voice	4G 4b 4dd
.	.	_	.	.	.	.	.	.
.	.	_	.	.	.	.	.	.
=133	=133	=133	=133	=133	=133	=133	=133	=133
1i	A:min	_	.	.	271.218	.	voice	1A 1cc 1ee
.	.	_	.	.	.	.	.	.
.	.	_	.	.	.	.	.	.
.	.	zy	.	.	.	.	.	.
.	.	on	.	.	.	.	.	.
.	.	_	.	.	.	.	.	.
.	.	you	.	.	.	.	.	.
=134	=134	=134	=134	=134	=134	=134	=134	=134
2.-VI	F:maj	.	.	.	273.035	.	voice	2.F- 2.a- 2.cc-
.	.	.	.	.	.	.	.	.
.	.	Lem-	.	.	.	.	.	.
.	.	-me	.	.	.	.	.	.
4-VII	G:maj	go	.	.	274.397	.	voice	4G 4b 4dd
=135	=135	=135	=135	=135	=135	=135	=135	=135
1i	A:min	cra	.	.	274.851	newline	voice	1A 1cc 1ee
.	.	_	.	.	.	.	.	.
.	.	zy,	.	.	.	.	.	.
.	.	cra-	.	.	.	.	.	.
.	.	-zy	.	.	.	.	.	.
.	.	on	.	.	.	.	.	.
.	.	you	.	.	.	.	.	.
=136	=136	=136	=136	=136	=136	=136	=136	=136
.	.	_	.	.	.	.	.	.
1-VII	G:maj	_	.	.	276.668	.	voice	1G 1b 1dd
=137	=137	=137	=137	=137	=137	=137	=137	=137
1-VI	F:maj	-oh	.	.	278.485	.	voice	1F- 1a- 1cc-
.	.	_	.	.	.	.	.	.
.	.	_	.	.	.	.	.	.
.	.	_	.	.	.	.	.	.
=138	=138	=138	=138	=138	=138	=138	=138	=138
1i	A:min	_	.	.	280.301	.	voice	1A 1cc 1ee
1r;	N	.	.	.	290.293	.	r	1r;
1r;	N	.	.	.	291.51	.	r	1r;
*-	*-	*-	*-	*-	*-	*-	*-	*-
!!!BillboardChartDate: 1978/02/11, 1976/06/12
!!!BillboardPeak: 35, 35
!!!BillboardWeeksOnChart: 19, 19
!!!COC: Heart
!!!ENC: Nathaniel Condit-Schultz
!!!EST: Awating manual error checking and editing.
!!!OTL: Crazy On You
!!!RDF**harte: Chris Harte's syntax, used by MIREX
!!!RDF**harmony: **recip + pitch class of root + harmonic quality
!!!RDF**leadinstrument: original McGill primary instrumentation annotation
!!!RDF**phrase: newline = linebreak in original McGill transcription
!!!RDF**timestamp: McGill audio timestamp in seconds
!!!RDT: 2017/01/12/
!!!SampleActualRank: 100,  49
!!!SampleID#: 33, 73
!!!SampleTargetRank: 99, 49
!!!MBID: 6bbd8560-58e8-4ae0-a04f-5a675e477bd2
